src/assets/animalImage/img/octopus.svg

<?xml version="1.0" encoding="UTF-8" standalone="no"?><!DOCTYPE svg PUBLIC "-//W3C//DTD SVG 1.1//EN" "http://www.w3.org/Graphics/SVG/1.1/DTD/svg11.dtd"><svg width="100%" height="100%" viewBox="0 0 329 298" version="1.1" xmlns="http://www.w3.org/2000/svg" xmlns:xlink="http://www.w3.org/1999/xlink" xml:space="preserve" style="fill-rule:evenodd;clip-rule:evenodd;stroke-linejoin:round;stroke-miterlimit:1.41421;"><path d="M147.95,124.616c0,9.087 -7.369,16.456 -16.456,16.456c-9.084,0 -16.45,-7.369 -16.45,-16.456c0,-9.085 7.366,-16.45 16.45,-16.45c9.087,0 16.456,7.365 16.456,16.45Z" style="fill:#093a2e;fill-rule:nonzero;"/><path d="M212.794,124.616c0,9.087 -7.369,16.456 -16.456,16.456c-9.085,0 -16.45,-7.369 -16.45,-16.456c0,-9.085 7.365,-16.45 16.45,-16.45c9.087,0 16.456,7.365 16.456,16.45Z" style="fill:#093a2e;fill-rule:nonzero;"/><path d="M187.535,180.928c0,9.084 -12.547,16.45 -28.022,16.45c-15.472,0 -28.019,-7.366 -28.019,-16.45c0,-9.091 12.547,-16.456 28.019,-16.456c15.475,0 28.022,7.365 28.022,16.456Z" style="fill:#ae265a;fill-rule:nonzero;"/><path d="M314.41,169.469c-2.591,20.334 -19.069,37.981 -40.994,43.94c-5.041,1.35 -10.103,2.041 -15.066,2.041c-2.794,0 -5.575,-0.219 -8.287,-0.644c-1.55,-0.253 -2.613,-1.709 -2.369,-3.253c0.247,-1.559 1.741,-2.603 3.256,-2.369c6.744,1.066 13.878,0.638 20.985,-1.275c19.718,-5.347 34.518,-21.09 36.828,-39.162c3.681,-28.916 -7.578,-37.925 -16.372,-42.191c-1.413,-0.687 -2,-2.387 -1.31,-3.809c0.685,-1.409 2.391,-2 3.807,-1.313c16.247,7.885 22.634,23.597 19.522,48.035Zm-117.682,-35.285c-5.475,0 -9.922,-4.44 -9.922,-9.922c0,-5.471 4.447,-9.915 9.922,-9.915c5.475,0 9.903,4.444 9.903,9.915c0,5.482 -4.428,9.922 -9.903,9.922Zm-16.515,46.5c-1.4,1.525 -3.038,2.835 -4.853,3.935c-3.675,2.256 -8.119,3.331 -12.504,3.287c-4.381,-0.187 -8.64,-1.425 -12.218,-3.609c-1.788,-1.078 -3.457,-2.325 -4.919,-3.803c-2.428,-2.432 0.919,-3.441 6.7,-2.038c3.675,0.885 7.166,1.456 10.647,1.516c3.497,0.162 6.915,-0.325 10.519,-1.231c5.668,-1.441 8.978,-0.604 6.628,1.943Zm-51.372,-46.531c-5.588,0 -10.141,-4.553 -10.141,-10.137c0,-5.591 4.553,-10.138 10.141,-10.138c5.594,0 10.137,4.547 10.137,10.138c0,5.584 -4.543,10.137 -10.137,10.137Zm-55.088,80.653c-2.715,0.425 -5.506,0.644 -8.297,0.644c-4.959,0 -10.025,-0.691 -15.062,-2.041c-21.931,-5.959 -38.397,-23.603 -40.994,-43.94c-3.106,-24.438 3.278,-40.15 19.531,-48.035c1.41,-0.675 3.116,-0.096 3.804,1.313c0.687,1.422 0.1,3.122 -1.31,3.809c-8.797,4.266 -20.05,13.275 -16.378,42.191c2.303,18.072 17.113,33.803 36.841,39.162c7.081,1.913 14.231,2.338 20.972,1.275c1.509,-0.234 3.012,0.81 3.256,2.369c0.25,1.544 -0.819,3 -2.363,3.253Zm249.091,-45.662l1.769,0.018c2.372,0.025 4.312,-2.29 4.337,-5.15c0.01,-2.856 -1.89,-5.193 -4.269,-5.203c-0.571,-0.006 -1.118,-0.006 -1.624,-0.009c-0.126,-3.925 -0.519,-7.481 -1.154,-10.691l2.088,-0.687c2.256,-0.741 3.362,-3.55 2.465,-6.266c-0.896,-2.725 -3.443,-4.325 -5.703,-3.578c-0.69,0.222 -1.306,0.422 -1.881,0.613c-4.597,-10.447 -12.147,-15.8 -19.003,-19.122c-7.875,-3.822 -22.319,-8.203 -26.153,-0.328c-3.766,7.775 7.469,14.918 12.628,21.79c2.637,3.522 7.366,7.585 4.412,30.703c-1.656,13.088 -13.906,22.057 -25.293,25.135c-5.95,1.634 -20.782,4.025 -30.332,-8.353c0,0 -5.621,-6.682 -8.465,-15.557c-2.025,-6.381 2.231,-15.975 5.778,-21.662c10.391,-16.706 16.497,-40.131 16.497,-59.6c0,-50.372 -32.891,-91.197 -83.256,-91.197c-50.375,0 -83.263,40.837 -83.263,91.197c0,16.844 4.553,37.756 12.513,53.297c3.056,5.968 6.965,15.828 5.181,22.284c-2.553,9.238 -7.791,16.509 -7.791,16.509c-9.562,12.382 -24.397,9.991 -30.334,8.357c-11.406,-3.088 -23.638,-12.053 -25.306,-25.132c-2.954,-23.118 1.787,-27.193 4.431,-30.721c5.147,-6.857 16.378,-14.016 12.609,-21.785c-3.825,-7.881 -18.269,-3.487 -26.162,0.328c-6.944,3.378 -14.628,8.819 -19.203,19.582l-0.166,-0.057c-2.259,-0.737 -4.813,0.85 -5.706,3.582c-0.9,2.715 0.2,5.528 2.456,6.271l0.512,0.16c-0.621,3.362 -1.003,7.09 -1.087,11.222l-0.113,0c-2.365,0.015 -4.278,2.347 -4.256,5.203c0.01,2.859 1.956,5.172 4.328,5.15l0.385,0c0.14,1.656 0.281,3.315 0.512,5.087c0.266,2.069 0.691,4.119 1.203,6.138c-2.262,0.703 -3.431,3.472 -2.603,6.203c0.838,2.747 3.356,4.409 5.625,3.709l0.428,-0.122c1.785,3.875 4.019,7.572 6.635,11.038l-0.332,0.281c-1.8,1.538 -1.762,4.556 0.094,6.738c1.863,2.168 4.831,2.69 6.644,1.143l0.475,-0.409c3.337,3.197 7.037,6.078 11.053,8.594l-0.247,0.484c-1.056,2.119 0.169,4.878 2.731,6.15c2.563,1.275 5.504,0.575 6.554,-1.547l0.112,-0.234c3.231,1.412 6.594,2.634 10.078,3.581c6.022,1.625 12.006,2.425 17.847,2.425c3.306,0 6.575,-0.262 9.766,-0.759c5.356,-0.85 6.225,2.012 2.956,7.859c-5.425,9.688 -9.969,20.197 -15.684,24.575c-6.116,4.678 -20.585,3.216 -23.697,1.678c-7.775,-3.912 -17.288,-0.831 -21.253,6.944c-4,7.8 0.828,14.103 8.634,18.084c0.628,0.332 2.391,0.875 4.825,1.46l-0.109,0.64c-0.379,2.338 1.587,4.61 4.415,5.079c2.819,0.453 5.422,-1.072 5.81,-3.41l0.065,-0.406c3.597,0.491 7.603,0.834 11.806,0.956l0.032,0.478c0.181,2.366 2.637,4.113 5.49,3.888c2.716,-0.197 4.75,-2.113 4.791,-4.331c6.222,-0.213 12.441,-1.222 18.503,-5.875c16.819,-12.929 48.938,-45.791 51.638,-49.494c0,0 13.287,-16.953 23.359,-16.953c10.084,0 23.297,18.509 23.297,18.509c2.706,3.691 36.869,39.65 53.694,52.556c5.8,4.457 11.762,5.575 17.715,5.841l-0.053,0.641c-0.178,2.365 1.991,4.453 4.844,4.675c2.853,0.212 5.309,-1.532 5.494,-3.888c0.04,-0.503 0.068,-0.962 0.109,-1.409c4.103,-0.091 8.019,-0.41 11.581,-0.857l0.21,1.241c0.381,2.334 2.984,3.863 5.806,3.397c2.822,-0.459 4.803,-2.728 4.406,-5.072c-0.078,-0.478 -0.15,-0.922 -0.222,-1.347c2.941,-0.675 5.028,-1.309 5.741,-1.687c7.794,-3.975 12.619,-10.272 8.637,-18.078c-3.968,-7.779 -13.49,-10.857 -21.256,-6.938c-3.119,1.525 -17.6,2.984 -23.694,-1.694c-5.718,-4.384 -10.393,-14.843 -15.875,-24.506c-3.322,-5.816 -2.462,-8.678 2.888,-7.825c3.187,0.506 6.45,0.759 9.762,0.753c5.825,0 11.807,-0.793 17.828,-2.425c4.079,-1.109 7.972,-2.594 11.7,-4.337c1.063,2.106 3.985,2.797 6.541,1.528c2.559,-1.272 3.781,-4.025 2.722,-6.147l-0.222,-0.456c3.931,-2.607 7.541,-5.575 10.778,-8.841l0.744,0.631c1.809,1.532 4.775,1.025 6.637,-1.156c1.85,-2.178 1.894,-5.187 0.094,-6.722c-0.284,-0.244 -0.528,-0.453 -0.781,-0.669c2.462,-3.443 4.512,-7.115 6.169,-10.94l1.35,0.412c2.268,0.685 4.781,-0.968 5.622,-3.709c0.831,-2.731 -0.335,-5.522 -2.597,-6.209c-0.413,-0.116 -0.778,-0.235 -1.147,-0.341c0.35,-1.578 0.647,-3.178 0.847,-4.778c0.262,-2.135 0.453,-4.153 0.6,-6.128l0.006,0Z" style="fill:#aba7cd;fill-rule:nonzero;"/><path d="M137.794,153.147c0,6.284 -5.094,11.378 -11.378,11.378c-6.281,0 -11.372,-5.094 -11.372,-11.378c0,-6.281 5.091,-11.375 11.372,-11.375c6.284,0 11.378,5.094 11.378,11.375Z" style="fill:#f0d4df;fill-rule:nonzero;"/><path d="M210.285,153.147c0,6.284 -5.094,11.378 -11.379,11.378c-6.278,0 -11.371,-5.094 -11.371,-11.378c0,-6.281 5.093,-11.375 11.371,-11.375c6.285,0 11.379,5.094 11.379,11.375Z" style="fill:#f0d4df;fill-rule:nonzero;"/></svg>

<?xml version="1.0" encoding="UTF-8" standalone="no"?>
<!DOCTYPE svg PUBLIC "-//W3C//DTD SVG 1.1//EN" "http://www.w3.org/Graphics/SVG/1.1/DTD/svg11.dtd">
<svg width="100%" height="100%" viewBox="0 0 329 329" version="1.1" xmlns="http://www.w3.org/2000/svg" xmlns:xlink="http://www.w3.org/1999/xlink" xml:space="preserve" xmlns:serif="http://www.serif.com/" style="fill-rule:evenodd;clip-rule:evenodd;stroke-linejoin:round;stroke-miterlimit:1.41421;">
    <g transform="matrix(1,0,0,1,0,15.5)">
        <path d="M147.95,124.616C147.95,133.703 140.581,141.072 131.494,141.072C122.41,141.072 115.044,133.703 115.044,124.616C115.044,115.531 122.41,108.166 131.494,108.166C140.581,108.166 147.95,115.531 147.95,124.616Z" style="fill:rgb(9,58,46);fill-rule:nonzero;"/>
    </g>
    <g transform="matrix(1,0,0,1,0,15.5)">
        <path d="M212.794,124.616C212.794,133.703 205.425,141.072 196.338,141.072C187.253,141.072 179.888,133.703 179.888,124.616C179.888,115.531 187.253,108.166 196.338,108.166C205.425,108.166 212.794,115.531 212.794,124.616Z" style="fill:rgb(9,58,46);fill-rule:nonzero;"/>
    </g>
    <g transform="matrix(1,0,0,1,0,15.5)">
        <path d="M187.535,180.928C187.535,190.012 174.988,197.378 159.513,197.378C144.041,197.378 131.494,190.012 131.494,180.928C131.494,171.837 144.041,164.472 159.513,164.472C174.988,164.472 187.535,171.837 187.535,180.928Z" style="fill:rgb(171,167,205);fill-rule:nonzero;"/>
    </g>
    <g transform="matrix(1,0,0,1,0,15.5)">
        <path d="M314.41,169.469C311.819,189.803 295.341,207.45 273.416,213.409C268.375,214.759 263.313,215.45 258.35,215.45C255.556,215.45 252.775,215.231 250.063,214.806C248.513,214.553 247.45,213.097 247.694,211.553C247.941,209.994 249.435,208.95 250.95,209.184C257.694,210.25 264.828,209.822 271.935,207.909C291.653,202.562 306.453,186.819 308.763,168.747C312.444,139.831 301.185,130.822 292.391,126.556C290.978,125.869 290.391,124.169 291.081,122.747C291.766,121.338 293.472,120.747 294.888,121.434C311.135,129.319 317.522,145.031 314.41,169.469ZM196.728,134.184C191.253,134.184 186.806,129.744 186.806,124.262C186.806,118.791 191.253,114.347 196.728,114.347C202.203,114.347 206.631,118.791 206.631,124.262C206.631,129.744 202.203,134.184 196.728,134.184ZM180.213,180.684C178.813,182.209 177.175,183.519 175.36,184.619C171.685,186.875 167.241,187.95 162.856,187.906C158.475,187.719 154.216,186.481 150.638,184.297C148.85,183.219 147.181,181.972 145.719,180.494C143.291,178.062 146.638,177.053 152.419,178.456C156.094,179.341 159.585,179.912 163.066,179.972C166.563,180.134 169.981,179.647 173.585,178.741C179.253,177.3 182.563,178.137 180.213,180.684ZM128.841,134.153C123.253,134.153 118.7,129.6 118.7,124.016C118.7,118.425 123.253,113.878 128.841,113.878C134.435,113.878 138.978,118.425 138.978,124.016C138.978,129.6 134.435,134.153 128.841,134.153ZM73.753,214.806C71.038,215.231 68.247,215.45 65.456,215.45C60.497,215.45 55.431,214.759 50.394,213.409C28.463,207.45 11.997,189.806 9.4,169.469C6.294,145.031 12.678,129.319 28.931,121.434C30.341,120.759 32.047,121.338 32.735,122.747C33.422,124.169 32.835,125.869 31.425,126.556C22.628,130.822 11.375,139.831 15.047,168.747C17.35,186.819 32.16,202.55 51.888,207.909C58.969,209.822 66.119,210.247 72.86,209.184C74.369,208.95 75.872,209.994 76.116,211.553C76.366,213.097 75.297,214.553 73.753,214.806ZM322.844,169.144L324.613,169.162C326.985,169.187 328.925,166.872 328.95,164.012C328.96,161.156 327.06,158.819 324.681,158.809C324.11,158.803 323.563,158.803 323.057,158.8C322.931,154.875 322.538,151.319 321.903,148.109L323.991,147.422C326.247,146.681 327.353,143.872 326.456,141.156C325.56,138.431 323.013,136.831 320.753,137.578C320.063,137.8 319.447,138 318.872,138.191C314.275,127.744 306.725,122.391 299.869,119.069C291.994,115.247 277.55,110.866 273.716,118.741C269.95,126.516 281.185,133.659 286.344,140.531C288.981,144.053 293.71,148.116 290.756,171.234C289.1,184.322 276.85,193.291 265.463,196.369C259.513,198.003 244.681,200.394 235.131,188.016C235.131,188.016 229.51,181.334 226.666,172.459C224.641,166.078 228.897,156.484 232.444,150.797C242.835,134.091 248.941,110.666 248.941,91.197C248.941,40.825 216.05,0 165.685,0C115.31,0 82.422,40.837 82.422,91.197C82.422,108.041 86.975,128.953 94.935,144.494C97.991,150.462 101.9,160.322 100.116,166.778C97.563,176.016 92.325,183.287 92.325,183.287C82.763,195.669 67.928,193.278 61.991,191.644C50.585,188.556 38.353,179.591 36.685,166.512C33.731,143.394 38.472,139.319 41.116,135.791C46.263,128.934 57.494,121.775 53.725,114.006C49.9,106.125 35.456,110.519 27.563,114.334C20.619,117.712 12.935,123.153 8.36,133.916L8.194,133.859C5.935,133.122 3.381,134.709 2.488,137.441C1.588,140.156 2.688,142.969 4.944,143.712L5.456,143.872C4.835,147.234 4.453,150.962 4.369,155.094L4.256,155.094C1.891,155.109 -0.022,157.441 0,160.297C0.01,163.156 1.956,165.469 4.328,165.447L4.713,165.447C4.853,167.103 4.994,168.762 5.225,170.534C5.491,172.603 5.916,174.653 6.428,176.672C4.166,177.375 2.997,180.144 3.825,182.875C4.663,185.622 7.181,187.284 9.45,186.584L9.878,186.462C11.663,190.337 13.897,194.034 16.513,197.5L16.181,197.781C14.381,199.319 14.419,202.337 16.275,204.519C18.138,206.687 21.106,207.209 22.919,205.662L23.394,205.253C26.731,208.45 30.431,211.331 34.447,213.847L34.2,214.331C33.144,216.45 34.369,219.209 36.931,220.481C39.494,221.756 42.435,221.056 43.485,218.934L43.597,218.7C46.828,220.112 50.191,221.334 53.675,222.281C59.697,223.906 65.681,224.706 71.522,224.706C74.828,224.706 78.097,224.444 81.288,223.947C86.644,223.097 87.513,225.959 84.244,231.806C78.819,241.494 74.275,252.003 68.56,256.381C62.444,261.059 47.975,259.597 44.863,258.059C37.088,254.147 27.575,257.228 23.61,265.003C19.61,272.803 24.438,279.106 32.244,283.087C32.872,283.419 34.635,283.962 37.069,284.547L36.96,285.187C36.581,287.525 38.547,289.797 41.375,290.266C44.194,290.719 46.797,289.194 47.185,286.856L47.25,286.45C50.847,286.941 54.853,287.284 59.056,287.406L59.088,287.884C59.269,290.25 61.725,291.997 64.578,291.772C67.294,291.575 69.328,289.659 69.369,287.441C75.591,287.228 81.81,286.219 87.872,281.566C104.691,268.637 136.81,235.775 139.51,232.072C139.51,232.072 152.797,215.119 162.869,215.119C172.953,215.119 186.166,233.628 186.166,233.628C188.872,237.319 223.035,273.278 239.86,286.184C245.66,290.641 251.622,291.759 257.575,292.025L257.522,292.666C257.344,295.031 259.513,297.119 262.366,297.341C265.219,297.553 267.675,295.809 267.86,293.453C267.9,292.95 267.928,292.491 267.969,292.044C272.072,291.953 275.988,291.634 279.55,291.187L279.76,292.428C280.141,294.762 282.744,296.291 285.566,295.825C288.388,295.366 290.369,293.097 289.972,290.753C289.894,290.275 289.822,289.831 289.75,289.406C292.691,288.731 294.778,288.097 295.491,287.719C303.285,283.744 308.11,277.447 304.128,269.641C300.16,261.862 290.638,258.784 282.872,262.703C279.753,264.228 265.272,265.687 259.178,261.009C253.46,256.625 248.785,246.166 243.303,236.503C239.981,230.687 240.841,227.825 246.191,228.678C249.378,229.184 252.641,229.437 255.953,229.431C261.778,229.431 267.76,228.638 273.781,227.006C277.86,225.897 281.753,224.412 285.481,222.669C286.544,224.775 289.466,225.466 292.022,224.197C294.581,222.925 295.803,220.172 294.744,218.05L294.522,217.594C298.453,214.987 302.063,212.019 305.3,208.753L306.044,209.384C307.853,210.916 310.819,210.409 312.681,208.228C314.531,206.05 314.575,203.041 312.775,201.506C312.491,201.262 312.247,201.053 311.994,200.837C314.456,197.394 316.506,193.722 318.163,189.897L319.513,190.309C321.781,190.994 324.294,189.341 325.135,186.6C325.966,183.869 324.8,181.078 322.538,180.391C322.125,180.275 321.76,180.156 321.391,180.05C321.741,178.472 322.038,176.872 322.238,175.272C322.5,173.137 322.691,171.119 322.838,169.144L322.844,169.144Z" style="fill:rgb(171,167,205);fill-rule:nonzero;"/>
    </g>
</svg>
